packages/icons/src/lib/svgs/chart.svg

<svg
        aria-hidden="true"
        data-testid="test-icon"
        fill="none"
        
        viewBox="0 0 24 24"
        
        xmlns="http://www.w3.org/2000/svg"
        
    >
        <title>chart icon</title>
        <path d="M4 4H5.68421V20H4V4Z" fill="currentColor" />
        <path d="M20 11.2V8.8L6.52632 8.8V11.2L20 11.2Z" fill="currentColor" />
        <path
            d="M13.2632 7.2V4.8L6.52632 4.8L6.52632 7.2L13.2632 7.2Z"
            fill="currentColor"
        />
        <path
            d="M17.4737 12.8V15.2H6.52632L6.52632 12.8L17.4737 12.8Z"
            fill="currentColor"
        />
        <path
            d="M14.9474 19.2L14.9474 16.8L6.52632 16.8V19.2H14.9474Z"
            fill="currentColor"
        />
    </svg>

<svg aria-hidden="true" data-testid="test-icon" fill="currentColor" viewBox="0 0 24 24" xmlns="http://www.w3.org/2000/svg"><path d="M4 4h1.684v16H4V4zM20 11.2V8.8H6.526v2.4H20zM13.263 7.2V4.8H6.526v2.4h6.737zM17.474 12.8v2.4H6.526v-2.4h10.948zM14.947 19.2v-2.4h-8.42v2.4h8.42z"/></svg>
